X: 652
T: Catherine Nowlan
C:O'Carolan
B:O'Neill's 652
Z: 1997 by John Chambers <jc@trillian.mit.edu>
N:"Slow"
N:Bar 5 seems to have a 16th-note D, giving a wrong rhythm.
N:I transcribed it like bar 14, which is otherwise identical.
M:3/4
L:1/8
K:D
(AB/c/) \
| (d2F)z (d>c) | (B2A)z (AB/c/) | d4 c2 | B4 (d>c) |
| ({Bc}B>A) ({GA}G>F) ({EF}E>D) | Dz D2 (DF/A/) | B2 (ez c)z | d4 ||
(d>e) \
| fz (az (f>e)) | dz (.d.c.B.A) | d4 cz | B4 (d>c) |
| ({Bc}B>A) ({GA}G>F) ({EF}E>D) | Dz D2 (DF/A/) | B2 (ez c)z | d4 |]


